X:1
T:Lidia, và pur fastosa
T:Giovanni Antonio Rigatti
T:Source : Musiche diverse a voce sola---Venetia---B.Magni---1641. Editor : André Vierendeels (27/12/16).
T:Lidia, và pur fastosa
T:©
T:©
T:©
C:Giovanni Antonio Rigatti
Z:©
%%score 1 2
L:1/8
Q:1/4=120
M:6/4
K:C
V:1 treble nm="Soprano" snm="S"
V:2 bass nm="MusicXML Part"
V:1
 z2 c2 d2 e2 d2 c2 | c4 B2 c2 d2 e2 | d2 e2 f2 e6 | d2 d2 d2 d6 | c6 z6 | z2 A2 B2 ^c2 B2 c2 | %6
w: Li- dia, Li- dia và|pur fa- sto- * *|* * * sa,|và pur fa- sto-|sa,|per- ch'hai _ splen- do'il|
w: Li- dia, Li- dia và|pur al- te- * *|* * * ra,|và pur al- te-|ra,|per- ch'hai di ul- vi|
w: Li- dia, Li- dia và|pur su- per- * *|* * * ba,|và pur su- per-|ba,|per- ch'hai di vi- so|
"^-natural" d2 c3 B A2 de cd | B3 c AB G2 A2 B2 | A6 G4 z2 | z6 z2 z2 d2 | e6 d3 c B2 | %11
w: crin _ _ _ d'o- * * *|* * * * * ri la-|cen- ti,|ve-|dro po- vet' Ar-|
w: rag- g'il _ _ ci- * * *|* * * * * glio a-|dor- no,|ve-|dro di si bel|
w: A- pril ri- den- * * * *|* * * * * ta il|vol- to,|ve-|dro non an- drà|
 e6 d2 d2 e2 | c2 c2 c2 B6 | z2 A2 B2 G2 G2 A2 | F6 E4 D2 | A2 D4 C6 :: z2 e2 e2 d2 c2 B2 | c6 z6 | %18
w: gen- ti, in lor|ve- ce'a- dom- brar,|in lor ve- ce'a- dom-|brar fron- te|rug go- sa,|che'à gl'e- na- ri d'A-|mor|
w: gior- no, con fier-|to- lo- so piè|con fier- to- lo- so|piè gian- ger|la se- ra,|ch'ai se- re- no d'A-|mor|
w: mol- to, lan- guir|le ro- * se,|le ro- se e'i gi-|gli la grem-|bo'all- er- ba,|ch'al giar- di- no d'A-|mor|
 A2 B2 c2 d2 c4 | B6 G2 A2 B2 | c2 BA Bc A2 AB cA | d4 d2 c2 c2 B2 | B4 A2 A6 | G4 c2 A2 A3 B | %24
w: ri- spet- to'al- cun non|hà, ri- spet- to'al-|cun non _ _ _ hà in _ _ _|vo- la o- gni te-|sor l'a- va-|ra, l'a- va- ra e-|
w: ri- spet- to'al- cun non|hà, ri- spet- to'al-|cun non _ _ _ hà o- * * *|scu- ra o- gni splen-|dor la fo-|sca, la fo- sca e-|
w: ri- spet- to'al- cun non|hà, ri- spet- to'al-|cun non _ _ _ hà scol- * * *|lo- ris- se'o- gni fi-|or la fred-|da, la fred- da e-|
 G4 z2 z6 | z2 g2 g2 f2 e2 d2 | e6 c2 d2 e2 | f2 e4 d2 de fd | g4 g2 f2 e2 d2 | e4 g2 c6 | %30
w: tà,|che'a gl'e- na- ri d'A-|mor ri- spet- to'al-|cun non hà in _ _ _|vo- la o- gni te-|sor l'a- va-|
w: ta,|ch'ai se- re- no d'A-|mor ri- spet- to'al-|cun non hà o- * * *|scu- ra o- gni splen-|dor la fo-|
w: ta,|ch'al giar- di- no d'A-|mor ri- spet- to'al-|cun non hà scol- * * *|lo- ris- se'o- gni fi-|or la fred-|
 c4 d2 d2 d3 e | c12 :| %32
w: ra, l'- va- ra e-|tà.|
w: sca, la fo- sca e-|tà.|
w: da, la fred- da e-|tà.|
V:2
 C,4 B,,2 C,2 D,2 E,2 | F,2 G,4 A,6 | B,6 C,2 D,2 E,2 | F,2 G,2 A,2 F,2 G,4 | %4
 C,2 C,2 D,2 E,3 D, E,2 | F,6 E,6 | D,2 D,2 E,2 ^F,3 E, F,2 | G,4 ^F,2 E,4 B,,2 | %8
 C,2 D,4 G,,3 A,, B,,G,, | C,2 E,,2 F,,2 G,,6 | C,3 D, E,C, G,6 | C2 B,2 A,2 B,2 A,2 G,2 | %12
"^(-natural)" A,2 G,2 ^F,2 G,2 F,2 E,2 | F,2 E,2 D,2 E,2 D,2 C,2 | D,2 C,2 B,,2 C,3 D, E,2 | %15
 F,2 G,4 C,6 :: C,6 B,,6 | A,,2 A,2 A,2 G,2 F,2 E,2 | F,4 E,2 D,2 E,2 ^F,2 | G,2 ^F,4 E,4 D,2 | %20
 C,2 D,2 E,2 F,2 E,4 | D,2 D,E, ^F,D, E,2 F,4 | G,2 B,,2 C,2 D,2 E,2 ^F,2 | G,2 B,,2 C,2 D,6 | %24
 G,,2 G,2 G,2 F,2 E,2 D,2 | E,6 D,6 | C,2 D,2 E,2 F,4 E,2 | D,2 E,2 F,2 G,2 F,4 | %28
 E,2 D,2 C,2 D,2 C,2 B,,2 | C,2 D,2 E,2 F,2 G,2 A,2 | E,2 F,4 G,2 G,,4 | C,12 :| %32

